packages/sights/assets/overlays/ClEZSucK.svg

<svg width="500" height="375" viewBox="0 0 500 375" fill="none" xmlns="http://www.w3.org/2000/svg">
<path d="M337.35 16L425.1 77.78C425.1 77.78 455.98 90.62 469.43 99.78V140.44L466.04 150.55L482.55 181.73L467.44 251.29L460.56 260.92C460.56 260.92 440.84 277.92 432.13 282.47L404.61 290.73L401.1 287.36L402.17 285.22L397.62 278.78" stroke="white" stroke-miterlimit="10"/>
<path d="M18 282.93L200.54 290.73H204.05L205.89 288.74V284.46L212 273.15H215.98" stroke="white" stroke-miterlimit="10"/>
<path d="M306.97 359.52C357.223 359.52 397.96 319.893 397.96 271.01C397.96 222.127 357.223 182.5 306.97 182.5C256.718 182.5 215.98 222.127 215.98 271.01C215.98 319.893 256.718 359.52 306.97 359.52Z" stroke="white" stroke-miterlimit="10"/>
<path d="M203.039 281.94C203.039 281.94 192.739 186.62 295.469 175.14C295.469 175.14 414.859 166.27 409.959 281.92" stroke="white" stroke-miterlimit="10"/>
<path d="M305.1 16C305.1 16 315.65 20.15 321.38 25L382.6 68.11C382.6 68.11 387.19 73.38 399.34 74.11C399.34 74.11 419.76 75.57 425.1 77.85" stroke="white" stroke-miterlimit="10"/>
<path d="M455.83 91.9702C455.83 91.9702 411.95 89.0402 402.09 91.9702L399.09 95.8202V99.7202C399.09 99.7202 428.44 132.97 432.09 135.26C432.09 135.26 465.87 135.95 469.39 132.97" stroke="white" stroke-miterlimit="10"/>
<path d="M18.0391 241.96H189.039C189.039 241.96 204.039 191.51 240.099 174.96" stroke="white" stroke-miterlimit="10"/>
<path d="M404.379 198.25C414.421 211.345 421.044 226.735 423.649 243.03C423.649 243.03 469.419 242.18 472.409 228.47" stroke="white" stroke-miterlimit="10"/>
<path d="M18.0391 82.98C18.0391 82.98 259.739 71.36 288.469 72.59C288.469 72.59 245.669 20.59 238.639 16" stroke="white" stroke-miterlimit="10"/>
<path d="M73.8105 16C73.8105 16 55.1305 57.48 51.8105 81.39L42.9605 88.48L30.7305 115.08C30.7305 115.08 26.4205 173.14 35.5905 210.47C35.5905 210.47 37.1205 217.81 34.0705 222.39L26.7305 236.76V241.96L27.7305 248.88C27.7305 248.88 30.8305 263.44 30.8305 263.88C30.8305 264.32 30.2505 267.55 30.2505 267.55L46.0405 279.49V284.14" stroke="white" stroke-miterlimit="10"/>
<path d="M234.78 127.77L234.32 129.53C234.32 129.53 221.32 128.15 220.1 127.24L220.56 120.66L222.63 118.45C222.63 118.45 234.01 115.69 234.78 116.08C234.78 116.08 233.02 118.68 237.3 118.83L260.15 118.37C260.979 118.095 261.732 117.625 262.344 117.001C262.956 116.377 263.411 115.615 263.67 114.78C263.67 114.78 275.14 114.01 280.94 116.84L281.79 118.52L280.64 124.33L278.58 125.63C278.58 125.63 264.74 128 263.21 128.15C263.21 128.15 261.61 126.47 260.38 126.47C260.38 126.47 234.04 125.32 234.78 127.77Z" stroke="white" stroke-miterlimit="10"/>
</svg>

<svg width="500" height="375" fill="none" xmlns="http://www.w3.org/2000/svg"><path d="m337.35 16 87.75 61.78s30.88 12.84 44.33 22v40.66l-3.39 10.11 16.51 31.18-15.11 69.56-6.88 9.63s-19.72 17-28.43 21.55l-27.52 8.26-3.51-3.37 1.07-2.14-4.55-6.44M18 282.93l182.54 7.8h3.51l1.84-1.99v-4.28l6.11-11.31h3.98" stroke="#fff" stroke-miterlimit="10"/><path d="M306.97 359.52c50.253 0 90.99-39.627 90.99-88.51s-40.737-88.51-90.99-88.51c-50.252 0-90.99 39.627-90.99 88.51s40.738 88.51 90.99 88.51Z" stroke="#fff" stroke-miterlimit="10"/><path d="M203.039 281.94s-10.3-95.32 92.43-106.8c0 0 119.39-8.87 114.49 106.78M305.1 16s10.55 4.15 16.28 9l61.22 43.11s4.59 5.27 16.74 6c0 0 20.42 1.46 25.76 3.74M455.83 91.97s-43.88-2.93-53.74 0l-3 3.85v3.9s29.35 33.25 33 35.54c0 0 33.78.69 37.3-2.29M18.04 241.96h170.999s15-50.45 51.06-67M404.379 198.25a99.365 99.365 0 0 1 19.27 44.78s45.77-.85 48.76-14.56M18.04 82.98s241.699-11.62 270.429-10.39c0 0-42.8-52-49.83-56.59" stroke="#fff" stroke-miterlimit="10"/><path d="M73.81 16s-18.68 41.48-22 65.39l-8.85 7.09-12.23 26.6s-4.31 58.06 4.86 95.39c0 0 1.53 7.34-1.52 11.92l-7.34 14.37v5.2l1 6.92s3.1 14.56 3.1 15c0 .44-.58 3.67-.58 3.67l15.79 11.94v4.65M234.78 127.77l-.46 1.76s-13-1.38-14.22-2.29l.46-6.58 2.07-2.21s11.38-2.76 12.15-2.37c0 0-1.76 2.6 2.52 2.75l22.85-.46a5.502 5.502 0 0 0 3.52-3.59s11.47-.77 17.27 2.06l.85 1.68-1.15 5.81-2.06 1.3s-13.84 2.37-15.37 2.52c0 0-1.6-1.68-2.83-1.68 0 0-26.34-1.15-25.6 1.3Z" stroke="#fff" stroke-miterlimit="10"/></svg>
